packages/ui-icons/src/Basic/16/Megafon-Elena_16.svg

<svg xmlns="http://www.w3.org/2000/svg" viewBox="0 0 20 20"><path d="M7.9 17.72A8 8 0 1 0 2 10a7.81 7.81 0 0 0 .27 2.06l1-.26A7.1 7.1 0 0 1 3 10a7 7 0 1 1 5.16 6.75Zm-3.18-3.2a.75.75 0 1 0 .75.75.76.76 0 0 0-.75-.75Zm-1.14-1.46a.75.75 0 1 0 .75.75.75.75 0 0 0-.75-.75Zm2.62 2.61a.75.75 0 1 0 .75.75.76.76 0 0 0-.75-.75Zm6.05-9.17h-4.5v7h4.5v-1h-3.5v-2h3v-1h-3v-2h3.5Z"/></svg>

<svg xmlns="http://www.w3.org/2000/svg" viewBox="0 0 20 20"><g id="New"><path d="M7.9,17.72A8,8,0,1,0,2,10a7.81,7.81,0,0,0,.27,2.06l1-.26A7.1,7.1,0,0,1,3,10a7,7,0,1,1,5.16,6.75Zm-3.18-3.2a.75.75,0,1,0,.75.75A.76.76,0,0,0,4.72,14.52ZM3.58,13.06a.75.75,0,1,0,.75.75A.75.75,0,0,0,3.58,13.06ZM6.2,15.67a.75.75,0,1,0,.75.75A.76.76,0,0,0,6.2,15.67ZM12.25,6.5H7.75v7h4.5v-1H8.75v-2h3v-1h-3v-2h3.5Z"/></g></svg>
